lib/healthicons/icons/solid/typography/V.svg

<svg fill="none" height="48" viewBox="0 0 48 48" width="48" xmlns="http://www.w3.org/2000/svg"><path clip-rule="evenodd" d="m24 38c.8074 0 1.5356-.4855 1.8462-1.2308l10-24c.4248-1.0196-.0573-2.1905-1.0769-2.6154-1.0196-.42479-2.1906.0574-2.6154 1.077l-8.1539 19.5692-8.1538-19.5692c-.4248-1.0196-1.5958-1.50179-2.6154-1.077-1.0196.4249-1.5018 1.5958-1.0769 2.6154l10 24c.3105.7453 1.0387 1.2308 1.8461 1.2308z" fill="#333" fill-rule="evenodd"/></svg>

<svg width="48" height="48" viewBox="0 0 48 48" fill="none" xmlns="http://www.w3.org/2000/svg">
<path fill-rule="evenodd" clip-rule="evenodd" d="M24 38C24.8074 38 25.5356 37.5145 25.8462 36.7692L35.8462 12.7692C36.271 11.7496 35.7889 10.5787 34.7693 10.1538C33.7497 9.72901 32.5787 10.2112 32.1539 11.2308L24 30.8L15.8462 11.2308C15.4214 10.2112 14.2504 9.72901 13.2308 10.1538C12.2112 10.5787 11.729 11.7496 12.1539 12.7692L22.1539 36.7692C22.4644 37.5145 23.1926 38 24 38Z" fill="#333333"/>
</svg>
